svg/solid/bxs-florist.svg

<svg xmlns="http://www.w3.org/2000/svg" width="24" height="24"><path d="M10.84 21.871 12 22a10.221 10.221 0 0 0-9.013-8.891L2 13l.021.173a10.001 10.001 0 0 0 8.819 8.698zm11.139-8.698L22 13l-.987.109c-4.7.523-8.427 4.2-9.013 8.891l1.16-.129a10.001 10.001 0 0 0 8.819-8.698zM18.063 5.5a2.5 2.5 0 0 0-3.415-.915c-.062.035-.111.081-.168.121.005-.069.02-.136.02-.206a2.5 2.5 0 1 0-5 0c0 .07.015.137.021.206-.057-.04-.107-.086-.168-.121a2.5 2.5 0 0 0-2.5 4.33c.061.035.126.056.188.085-.062.029-.127.05-.188.085a2.5 2.5 0 0 0 2.5 4.33c.062-.035.111-.081.168-.121-.006.069-.021.136-.021.206a2.5 2.5 0 1 0 5 0c0-.07-.015-.137-.021-.206.057.04.106.086.168.121a2.5 2.5 0 0 0 2.5-4.33c-.061-.035-.126-.056-.188-.085.063-.029.127-.05.188-.085a2.5 2.5 0 0 0 .916-3.415zM12 12a3 3 0 1 1 0-6 3 3 0 0 1 0 6z"/></svg>

<svg xmlns="http://www.w3.org/2000/svg" width="24" height="24" viewBox="0 0 24 24"><path d="M10.84 21.871L12 22c-.586-4.691-4.313-8.368-9.013-8.891L2 13l.021.173C2.596 17.763 6.242 21.36 10.84 21.871zM21.979 13.173L22 13l-.987.109C16.313 13.632 12.586 17.309 12 22l1.16-.129C17.758 21.36 21.404 17.763 21.979 13.173zM18.063 5.5c-.69-1.195-2.22-1.605-3.415-.915-.062.035-.111.081-.168.121C14.485 4.637 14.5 4.57 14.5 4.5 14.5 3.119 13.381 2 12 2S9.5 3.119 9.5 4.5c0 .07.015.137.021.206C9.464 4.666 9.414 4.62 9.353 4.585 8.157 3.895 6.628 4.305 5.938 5.5s-.28 2.725.915 3.415C6.914 8.95 6.979 8.971 7.041 9 6.979 9.029 6.914 9.05 6.853 9.085c-1.195.69-1.605 2.22-.915 3.415s2.22 1.605 3.415.915c.062-.035.111-.081.168-.121C9.515 13.363 9.5 13.43 9.5 13.5c0 1.381 1.119 2.5 2.5 2.5s2.5-1.119 2.5-2.5c0-.07-.015-.137-.021-.206.057.04.106.086.168.121 1.195.69 2.725.28 3.415-.915s.28-2.725-.915-3.415C17.086 9.05 17.021 9.029 16.959 9c.063-.029.127-.05.188-.085C18.343 8.225 18.753 6.695 18.063 5.5zM12 12c-1.657 0-3-1.343-3-3s1.343-3 3-3 3 1.343 3 3S13.657 12 12 12z"/></svg>
